!!!COM: Music21
!!!OTL: march_Brig-O-Blair
!!!OMV: march_Brig-O-Blair
**kern
*clefG2
*k[f#c#g#]
*A:
*M4/4
=1
4e
=
8.cc#L
16ddJk
8eeL
8cc#J
2ryy
=
4a
8eL
8aJ
2ryy
=
8.dL
16eJk
8f#L
8aJ
2ryy
=
4dd
8cc#L
8ddJ
2ryy
=
4ee
4e
2ryy
=
8.eeL
16cc#Jk
8bL
8aJ
2ryy
=
4b
8.bL
16cc#Jk
2ryy
!!linebreak:original
=
4b
4e
2ryy
=
8.cc#L
16ddJk
8eeL
8cc#J
2ryy
=
4a
8eL
8aJ
2ryy
=
8.dL
16eJk
8f#L
8aJ
2ryy
=
4dd
8cc#L
8ddJ
2ryy
=
4ee
4e
2ryy
=
8.eeL
16cc#Jk
8bL
8cc#J
2ryy
=
4a
8.aL
16bJk
2ryy
!!linebreak:original
=
4a
2.ryy
=||
*M4/4
4e
=
8.cc#L
16ddJk
8eeL
8cc#J
2ryy
=
4a
8eL
8aJ
2ryy
=
8.dL
16eJk
8f#L
8aJ
2ryy
=
4dd
8cc#L
8ddJ
2ryy
=
4ee
4e
2ryy
=
8.eeL
16cc#Jk
8bL
8aJ
2ryy
!!linebreak:original
=
4b
8.bL
16cc#Jk
2ryy
=
4b
4e
2ryy
=
8.cc#L
16ddJk
8eeL
8cc#J
2ryy
=
4a
8eL
8aJ
2ryy
=
8.dL
16eJk
8f#L
8aJ
2ryy
=
4dd
8cc#L
8ddJ
2ryy
=
4ee
4e
2ryy
=
8.eeL
16cc#Jk
8bL
8cc#J
2ryy
!!linebreak:original
=
4a
8.aL
16bJk
2ryy
=
4a
2.ryy
=||
8g#L
8aJ
2.ryy
=
4b
8eL
8g#J
2ryy
=
4b
8.aL
16bJk
2ryy
=
4cc#
8eL
8eeJ
2ryy
=
4.cc#
8e
2ryy
=
8.dL
16eJk
8f#L
8aJ
2ryy
!!linebreak:original
=
8f#L
8eJ
8eeL
8cc#J
2ryy
=
4b
8.bL
16cc#Jk
2ryy
=
4b
4e
2ryy
=
8.cc#L
16ddJk
8eeL
8cc#J
2ryy
=
4a
8eL
8aJ
2ryy
=
8.dL
16eJk
8f#L
8aJ
2ryy
=
4dd
8cc#L
8ddJ
2ryy
=
4ee
4e
2ryy
!!linebreak:original
=
8.eeL
16cc#Jk
8bL
8cc#J
2ryy
=
4a
8.aL
16bJk
2ryy
=
4a
2.ryy
=||
8g#L
8aJ
2.ryy
=
4b
8eL
8g#J
2ryy
=
4b
8.aL
16bJk
2ryy
=
4cc#
8eL
8eeJ
2ryy
=
4.cc#
8e
2ryy
!!linebreak:original
=
8.dL
16eJk
8f#L
8aJ
2ryy
=
8f#L
8eJ
8eeL
8cc#J
2ryy
=
4b
8.bL
16cc#Jk
2ryy
=
4b
4e
2ryy
=
8.cc#L
16ddJk
8eeL
8cc#J
2ryy
=
4a
8eL
8aJ
2ryy
=
8.dL
16eJk
8f#L
8aJ
2ryy
=
4dd
8cc#L
8ddJ
2ryy
!!linebreak:original
=
4ee
4e
2ryy
=
8.eeL
16cc#Jk
8bL
8cc#J
2ryy
=
4a
8.aL
16bJk
2ryy
=
4a
2.ryy
=||
*-
